X:1
T:Title
%%score { ( 1 3 4 ) | 2 }
L:1/8
M:4/4
K:Bb
V:1 treble nm="Grand Piano"
V:3 treble 
V:4 treble 
V:2 bass 
V:1
 z4 z2[Q:1/4=100] [B,D]>[CE] | [DF]>[DF] [DF]>[DF] [DG]>[DF] [_D=E]>[=DF] |[M:3/4] [DB]4 [DF]2 | %3
[M:1/4] [B,D]>[CE] |[M:4/4] [DF]>[DG] [DA]>[DB] [Dc]>[DB] [DA]>[DFB] |[M:3/4] [Ae]6 |[M:1/4] c>d | %7
[M:4/4] e>d e>d e2 [FB]>[Fc] |[M:3/4] [Fd]>[=E_d] [F=d]>[E_d] [F=d]2 |[M:1/4] [_Ad]>[Ad] | %10
[M:4/4] [Gf]>[Ge] [Gd]>[Gc] [Fd]2 [FB]2 |[M:3/4] c2 A2 [DB]2 |[M:1/4] (3FDF |[M:4/4] B6 z2 | %14
 F4 z4 | d>c B>A G2 [=Ec]2 |[M:3/4] F6 |[M:1/4] c>d |[M:4/4] e>d e>d e2 [FB]>[Fc] | %19
[M:3/4] [Fd]>[=E_d] [F=d]>[E_d] [F=d]2 |[M:1/4] [_Ad]>[Ad] | %21
[M:4/4] [Gf]>[Ge] [Gd]>[Gc] [Fd]2 [FB]2 |[M:7/4] c2 A2 [DB]2 z2 z2 z4 |] %23
V:2
 z4 z2 [B,,F,]>[B,,F,] | [B,,B,]>[B,,B,] [B,,B,]>[B,,B,] [B,,B,]>[B,,B,] [B,,B,]>[B,,B,] | %2
[M:3/4] [B,,F,]4 [B,,B,]2 |[M:1/4] [B,,F,]>[B,,F,] | %4
[M:4/4] [B,,B,]>[B,,B,] [B,,B,]>[B,,B,] [B,,F,]>[B,,F,] [B,,F,]>B,, |[M:3/4] [F,C]6 | %6
[M:1/4] [F,A,F]>[F,B,F] |[M:4/4] [F,CF]>[F,=B,F] [F,CF]>[F,B,F] [F,CF]2 [D,_B,]>[F,A,] | %8
[M:3/4] [B,,B,]>[B,,B,] [B,,B,]>[B,,B,] [B,,B,]2 |[M:1/4] [B,,B,]>[B,,B,] | %10
[M:4/4] [E,B,]>[E,B,] [E,B,]>[E,B,] [B,,B,]2 [D,B,]2 |[M:3/4] [E,G,E]2 [F,E]2 [B,,F,]2 | %12
[M:1/4] z2 |[M:4/4] [B,,F,]>[B,,F,] [B,,F,]>[B,,F,] [B,,F,]2 z2 | %14
 [B,,B,]>[B,,B,] [B,,B,]>[B,,B,] [B,,F,B,]2 D,>D, | D>C B,>A, G,2 [C,B,]2 |[M:3/4] F,6 | %17
[M:1/4] [F,A,F]>[F,B,F] |[M:4/4] [F,CF]>[F,=B,F] [F,CF]>[F,B,F] [F,CF]2 [D,_B,]>[F,A,] | %19
[M:3/4] [B,,B,]>[B,,B,] [B,,B,]>[B,,B,] [B,,B,]2 |[M:1/4] [B,,B,]>[B,,B,] | %21
[M:4/4] [E,B,]>[E,B,] [E,B,]>[E,B,] [B,,B,]2 [D,B,]2 |[M:7/4] [E,G,E]2 [F,E]2 [B,,F,]2 z2 z2 z4 |] %23
V:3
 x8 | x8 |[M:3/4] x6 |[M:1/4] x2 |[M:4/4] x8 |[M:3/4] x6 |[M:1/4] x2 |[M:4/4] x8 |[M:3/4] x6 | %9
[M:1/4] x2 |[M:4/4] x8 |[M:3/4] x6 |[M:1/4] x2 |[M:4/4] D>D D>D z z/ c/ d>B | D>D D>D D2 D>D | x8 | %16
[M:3/4] x6 |[M:1/4] x2 |[M:4/4] x8 |[M:3/4] x6 |[M:1/4] x2 |[M:4/4] x8 |[M:7/4] x14 |] %23
V:4
 x8 | x8 |[M:3/4] x6 |[M:1/4] x2 |[M:4/4] x8 |[M:3/4] x6 |[M:1/4] x2 |[M:4/4] x8 |[M:3/4] x6 | %9
[M:1/4] x2 |[M:4/4] x8 |[M:3/4] x6 |[M:1/4] x2 |[M:4/4] z4 D2 z2 | x8 | x8 |[M:3/4] x6 | %17
[M:1/4] x2 |[M:4/4] x8 |[M:3/4] x6 |[M:1/4] x2 |[M:4/4] x8 |[M:7/4] x14 |] %23

